X:52
T: Wiedersehen an der Bahre
N: Q0056H
O: Mitteleuropa, Deutschland (BRD) , Wuerttemberg, Schwaebische Alb
N: Eingeklammerte Note nicht mitgespielt.
R: Ballade, Abschied, Enttaeuschung, Tod, Selbstmord
M: 3/4
L: 1/16
K: G
 | D3GG4F2E2 | E3DD4z2
D2 | D3GG4F2E2 | E4D4z2
G2 | F2A2d4c2d2 | B2B2B4A2
G2 | F2A2d4c3F | F4G4z4

@@@ Tune index: 928
